assets/images/chart.svg

<svg id="SvgjsSvg1256" width="336" height="212" xmlns="http://www.w3.org/2000/svg" version="1.1" xmlns:xlink="http://www.w3.org/1999/xlink" xmlns:data="ChartNS"><g id="SvgjsG1258" transform="translate(2, 30)"><defs id="SvgjsDefs1257"><linearGradient id="SvgjsLinearGradient1269" x1="0" y1="0" x2="0" y2="1"><stop id="SvgjsStop1270" stop-opacity="0.55" stop-color="rgba(26,86,219,0.55)" offset="0"></stop><stop id="SvgjsStop1271" stop-opacity="0" stop-color="rgba(28,100,242,0)" offset="1"></stop><stop id="SvgjsStop1272" stop-opacity="0" stop-color="rgba(28,100,242,0)" offset="1"></stop></linearGradient><linearGradient id="SvgjsLinearGradient1278" x1="0" y1="0" x2="0" y2="1"><stop id="SvgjsStop1279" stop-opacity="0.55" stop-color="rgba(126,59,242,0.55)" offset="0"></stop><stop id="SvgjsStop1280" stop-opacity="0" stop-color="rgba(126,59,242,0)" offset="1"></stop><stop id="SvgjsStop1281" stop-opacity="0" stop-color="rgba(126,59,242,0)" offset="1"></stop></linearGradient></defs><line id="SvgjsLine1262" x1="265.1" y1="0" x2="265.1" y2="150" stroke="#b6b6b6" stroke-dasharray="3" stroke-linecap="butt" x="265.1" y="0" width="1" height="150" fill="#b1b9c4" filter="none" fill-opacity="0.9" stroke-width="1"></line><g id="SvgjsG1265"><g id="SvgjsG1266" zIndex="0" seriesName="DeveloperxEdition" data:longestSeries="true" rel="1" data:realIndex="0"><path id="SvgjsPath1273" d="M 0 150 L 0 32.14285714285717C 23.240000000000002 32.14285714285717 43.160000000000004 40.928571428571445 66.4 40.928571428571445C 89.64000000000001 40.928571428571445 109.56 36.85714285714286 132.8 36.85714285714286C 156.04 36.85714285714286 175.96 29.35714285714286 199.2 29.35714285714286C 222.44 29.35714285714286 242.36 47.571428571428584 265.6 47.571428571428584C 288.84000000000003 47.571428571428584 308.76 58.285714285714306 332 58.285714285714306C 332 58.285714285714306 332 58.285714285714306 332 150M 332 58.285714285714306z" fill="url(#SvgjsLinearGradient1269)" fill-opacity="1" stroke-opacity="1" stroke-linecap="butt" stroke-width="0" stroke-dasharray="0" index="0" clip-path="url(#gridRectMask5ztfprld)" pathTo="M 0 150 L 0 32.14285714285717C 23.240000000000002 32.14285714285717 43.160000000000004 40.928571428571445 66.4 40.928571428571445C 89.64000000000001 40.928571428571445 109.56 36.85714285714286 132.8 36.85714285714286C 156.04 36.85714285714286 175.96 29.35714285714286 199.2 29.35714285714286C 222.44 29.35714285714286 242.36 47.571428571428584 265.6 47.571428571428584C 288.84000000000003 47.571428571428584 308.76 58.285714285714306 332 58.285714285714306C 332 58.285714285714306 332 58.285714285714306 332 150M 332 58.285714285714306z" pathFrom="M -1 192.85714285714286 L -1 192.85714285714286 L 66.4 192.85714285714286 L 132.8 192.85714285714286 L 199.2 192.85714285714286 L 265.6 192.85714285714286 L 332 192.85714285714286"></path><path id="SvgjsPath1274" d="M 0 32.14285714285717C 23.240000000000002 32.14285714285717 43.160000000000004 40.928571428571445 66.4 40.928571428571445C 89.64000000000001 40.928571428571445 109.56 36.85714285714286 132.8 36.85714285714286C 156.04 36.85714285714286 175.96 29.35714285714286 199.2 29.35714285714286C 222.44 29.35714285714286 242.36 47.571428571428584 265.6 47.571428571428584C 288.84000000000003 47.571428571428584 308.76 58.285714285714306 332 58.285714285714306" fill="none" fill-opacity="1" stroke="#1a56db" stroke-opacity="1" stroke-linecap="butt" stroke-width="6" stroke-dasharray="0" index="0" clip-path="url(#gridRectMask5ztfprld)" pathTo="M 0 32.14285714285717C 23.240000000000002 32.14285714285717 43.160000000000004 40.928571428571445 66.4 40.928571428571445C 89.64000000000001 40.928571428571445 109.56 36.85714285714286 132.8 36.85714285714286C 156.04 36.85714285714286 175.96 29.35714285714286 199.2 29.35714285714286C 222.44 29.35714285714286 242.36 47.571428571428584 265.6 47.571428571428584C 288.84000000000003 47.571428571428584 308.76 58.285714285714306 332 58.285714285714306" pathFrom="M -1 192.85714285714286 L -1 192.85714285714286 L 66.4 192.85714285714286 L 132.8 192.85714285714286 L 199.2 192.85714285714286 L 265.6 192.85714285714286 L 332 192.85714285714286" fill-rule="evenodd"></path></g><g id="SvgjsG1275" zIndex="1" seriesName="DesignerxEdition" data:longestSeries="true" rel="2" data:realIndex="1"><path id="SvgjsPath1282" d="M 0 150 L 0 123.96428571428572C 23.240000000000002 123.96428571428572 43.160000000000004 148.60714285714286 66.4 148.60714285714286C 89.64000000000001 148.60714285714286 109.56 110.89285714285715 132.8 110.89285714285715C 156.04 110.89285714285715 175.96 148.71428571428572 199.2 148.71428571428572C 222.44 148.71428571428572 242.36 40.39285714285717 265.6 40.39285714285717C 288.84000000000003 40.39285714285717 308.76 7.392857142857167 332 7.392857142857167C 332 7.392857142857167 332 7.392857142857167 332 150M 332 7.392857142857167z" fill="url(#SvgjsLinearGradient1278)" fill-opacity="1" stroke-opacity="1" stroke-linecap="butt" stroke-width="0" stroke-dasharray="0" index="1" clip-path="url(#gridRectMask5ztfprld)" pathTo="M 0 150 L 0 123.96428571428572C 23.240000000000002 123.96428571428572 43.160000000000004 148.60714285714286 66.4 148.60714285714286C 89.64000000000001 148.60714285714286 109.56 110.89285714285715 132.8 110.89285714285715C 156.04 110.89285714285715 175.96 148.71428571428572 199.2 148.71428571428572C 222.44 148.71428571428572 242.36 40.39285714285717 265.6 40.39285714285717C 288.84000000000003 40.39285714285717 308.76 7.392857142857167 332 7.392857142857167C 332 7.392857142857167 332 7.392857142857167 332 150M 332 7.392857142857167z" pathFrom="M -1 192.85714285714286 L -1 192.85714285714286 L 66.4 192.85714285714286 L 132.8 192.85714285714286 L 199.2 192.85714285714286 L 265.6 192.85714285714286 L 332 192.85714285714286"></path><path id="SvgjsPath1283" d="M 0 123.96428571428572C 23.240000000000002 123.96428571428572 43.160000000000004 148.60714285714286 66.4 148.60714285714286C 89.64000000000001 148.60714285714286 109.56 110.89285714285715 132.8 110.89285714285715C 156.04 110.89285714285715 175.96 148.71428571428572 199.2 148.71428571428572C 222.44 148.71428571428572 242.36 40.39285714285717 265.6 40.39285714285717C 288.84000000000003 40.39285714285717 308.76 7.392857142857167 332 7.392857142857167" fill="none" fill-opacity="1" stroke="#7e3bf2" stroke-opacity="1" stroke-linecap="butt" stroke-width="6" stroke-dasharray="0" index="1" clip-path="url(#gridRectMask5ztfprld)" pathTo="M 0 123.96428571428572C 23.240000000000002 123.96428571428572 43.160000000000004 148.60714285714286 66.4 148.60714285714286C 89.64000000000001 148.60714285714286 109.56 110.89285714285715 132.8 110.89285714285715C 156.04 110.89285714285715 175.96 148.71428571428572 199.2 148.71428571428572C 222.44 148.71428571428572 242.36 40.39285714285717 265.6 40.39285714285717C 288.84000000000003 40.39285714285717 308.76 7.392857142857167 332 7.392857142857167" pathFrom="M -1 192.85714285714286 L -1 192.85714285714286 L 66.4 192.85714285714286 L 132.8 192.85714285714286 L 199.2 192.85714285714286 L 265.6 192.85714285714286 L 332 192.85714285714286" fill-rule="evenodd"></path></g></g></g></svg>

<svg width="336" height="212" xmlns="http://www.w3.org/2000/svg" xmlns:data="ChartNS"><g transform="translate(2 30)"><defs><linearGradient id="a" x1="0" y1="0" x2="0" y2="1"><stop stop-opacity=".55" stop-color="rgba(26,86,219,0.55)" offset="0"/><stop stop-opacity="0" stop-color="rgba(28,100,242,0)" offset="1"/><stop stop-opacity="0" stop-color="rgba(28,100,242,0)" offset="1"/></linearGradient><linearGradient id="b" x1="0" y1="0" x2="0" y2="1"><stop stop-opacity=".55" stop-color="rgba(126,59,242,0.55)" offset="0"/><stop stop-opacity="0" stop-color="rgba(126,59,242,0)" offset="1"/><stop stop-opacity="0" stop-color="rgba(126,59,242,0)" offset="1"/></linearGradient></defs><path stroke="#b6b6b6" stroke-dasharray="3" fill="#b1b9c4" filter="none" fill-opacity=".9" d="M265.1 0v150"/><g data:longestSeries="true" data:realIndex="0"><path d="M0 150V32.143c23.24 0 43.16 8.786 66.4 8.786 23.24 0 43.16-4.072 66.4-4.072 23.24 0 43.16-7.5 66.4-7.5 23.24 0 43.16 18.214 66.4 18.214 23.24 0 43.16 10.715 66.4 10.715V150m0-91.714z" fill="url(#a)" clip-path="url(#gridRectMask5ztfprld)"/><path d="M0 32.143c23.24 0 43.16 8.786 66.4 8.786 23.24 0 43.16-4.072 66.4-4.072 23.24 0 43.16-7.5 66.4-7.5 23.24 0 43.16 18.214 66.4 18.214 23.24 0 43.16 10.715 66.4 10.715" fill="none" stroke="#1a56db" stroke-width="6" stroke-dasharray="0" clip-path="url(#gridRectMask5ztfprld)"/></g><g data:longestSeries="true" data:realIndex="1"><path d="M0 150v-26.036c23.24 0 43.16 24.643 66.4 24.643 23.24 0 43.16-37.714 66.4-37.714 23.24 0 43.16 37.821 66.4 37.821 23.24 0 43.16-108.321 66.4-108.321 23.24 0 43.16-33 66.4-33V150m0-142.607z" fill="url(#b)" clip-path="url(#gridRectMask5ztfprld)"/><path d="M0 123.964c23.24 0 43.16 24.643 66.4 24.643 23.24 0 43.16-37.714 66.4-37.714 23.24 0 43.16 37.821 66.4 37.821 23.24 0 43.16-108.321 66.4-108.321 23.24 0 43.16-33 66.4-33" fill="none" stroke="#7e3bf2" stroke-width="6" stroke-dasharray="0" clip-path="url(#gridRectMask5ztfprld)"/></g></g></svg>
